X:290
T:Make A Little Boat
C:Kenny Baker (key of D)
N: tabbed S.M. Block 3/2018 
R:bluegrass
L:1/8
Q:1/4=225
M:4/4
K:D
e=f |: "D"fa fe de fa | (3"A"gag ed (3cdc Ae | "D"fa fe dB AF | "A"GF EA (3"D"FGF D=f | 
fa fe de fa | (3"A"gag ed (3cdc AF | "G"Bc dA GB AG | FD EG "D"(3FGF D2 | "D"fe fa fe df | 
"A"gf ed cB Ae | "D"fa fe dB AF | "A"GB AG "D"(3FGF De | "D"fe fa fe df | "A"gf ed cB Ac | 
"G"Bc dA Bd cB | "A"AG FE "D"FE D2 | "A"A,C EF A2 AA | [eB]A [eB]A [e2c2] [e2A2] | 
A,2 [A2E2A,2] "D"[F2A,2] [A2F2A,2] | "A"A,C EG "D"(3FGF D2 | "A"A,C EF A2 [eA]B | 
[ec]A [eB]A [AF]A [AE]A | A,C EC "D"DE FD | "A"CD EG "D"(3FGF D2 :| 


